X:130
T:Bobing Joan
A:Wyresdale, Lancashire
B:A John Winder Book, April 1789
L:1/8
M:C|
O:England
Z:Richard Robinson 
%%TUNEURL: http://www.leeds.ac.uk/music/Info/RRTuneBk/gettune/000005fe.html
%%ID:000005fe
K:G
fd Ac d2 fd | Ac eg fd Ac | d2 ec Ac eg ::
fa ag f2 ea | ag fa ba gf | e2 ec Ac eg :|
%%text That's what's written in the mss. It would almost certainly be happier in 3/2 :-
%%scale .5
[M:3/2] [L:1/4] \
fd Ac d2 | fd Ac eg | fd Ac d2 | ec Ac eg ::
fa ag f2 | ea ag fa | ba gf e2 | ec Ac eg :|
